Enavato/img/dribble.svg

<svg xmlns="http://www.w3.org/2000/svg" width="33" height="33" viewBox="0 0 33 33"><filter filterUnits="objectBoundingBox" x="-3.23" y="-3.23" width="106.45" height="109.68" id="a"><feGaussianBlur in="SourceAlpha" stdDeviation=".5" result="dsBlurOut1"/><feFlood flood-color="#000" flood-opacity=".25" result="dsFloodOut1"/><feComposite in="dsFloodOut1" in2="dsBlurOut1" operator="in" result="dsShadow1"/><feOffset in="dsShadow1" dy="1" result="dsOffset1"/><feComposite in="dsOffset1" in2="SourceAlpha" operator="out" result="dropShadow1"/><feBlend in="dropShadow1" in2="SourceGraphic" result="sourceGraphic"/></filter><path d="M16.64 31.01c-8.47 0-15.35-6.88-15.35-15.37C1.29 7.15 8.17.26 16.64.26c8.48 0 15.35 6.89 15.35 15.38 0 8.49-6.87 15.37-15.35 15.37zm-.09-27.28C9.95 3.73 4.6 9.1 4.6 15.72c0 6.63 5.35 12 11.95 12s11.95-5.37 11.95-12c0-6.62-5.35-11.99-11.95-11.99zm2.85 11.48c-.27-.69-.55-1.36-.85-2 3.58-1.38 5.63-3.75 5.63-3.75s2.03 2.18 2.21 5.73c0-.01-3.92-.57-6.99.02zm-5.35-9.05s4.79-1.53 8.94 2.08c-2.24 2.27-5.22 3.39-5.22 3.39-1.32-2.98-3.72-5.47-3.72-5.47zM6.9 13.64s.72-4.43 5.2-6.75c2.45 2.96 3.72 5.42 3.72 5.42s-3.65 1.19-8.92 1.33zm10.54 2s-4.67.86-8.4 6.5c-2.67-3.1-2.34-6.79-2.34-6.81 6.73-.21 9.94-1.45 9.94-1.45l.8 1.76zm.68 1.73c1.11 2.58 1.96 7.59 1.96 7.59s-4.83 2.18-9.59-1.43c.01 0 2.7-4.78 7.63-6.16zm8.21-.39c-.64 4.95-4.36 7.01-4.36 7.01-.63-3.63-1.92-7.05-1.92-7.05s2.98-.49 6.28.04z" fill="#FFF" filter="url(#a)"/></svg>

<?xml version="1.0" encoding="utf-8"?>
<svg xmlns="http://www.w3.org/2000/svg"
	xmlns:xlink="http://www.w3.org/1999/xlink"
	width="33px" height="33px" viewBox="0 0 33 33">
<filter filterUnits="objectBoundingBox" x="-3.23" y="-3.23" width="106.45" height="109.68" id="filter0">
<feGaussianBlur in="SourceAlpha" stdDeviation="0.50" result="dsBlurOut1"/>
<feFlood flood-color="rgb(0,0,0)" flood-opacity="0.25" result="dsFloodOut1"/>
<feComposite in="dsFloodOut1" in2="dsBlurOut1" operator="in" result="dsShadow1"/>
<feOffset in="dsShadow1" dx="-0.00" dy="1.00" result="dsOffset1"/>
<feComposite in="dsOffset1" in2="SourceAlpha" operator="out" result="dropShadow1"/>
<feBlend in="dropShadow1" in2="SourceGraphic" mode="normal" result="sourceGraphic"/>
</filter>
<path fillRule="evenodd" d="M 16.64 31.01C 8.17 31.01 1.29 24.13 1.29 15.64 1.29 7.15 8.17 0.26 16.64 0.26 25.12 0.26 31.99 7.15 31.99 15.64 31.99 24.13 25.12 31.01 16.64 31.01ZM 16.55 3.73C 9.95 3.73 4.6 9.1 4.6 15.72 4.6 22.35 9.95 27.72 16.55 27.72 23.15 27.72 28.5 22.35 28.5 15.72 28.5 9.1 23.15 3.73 16.55 3.73ZM 19.4 15.21C 19.13 14.52 18.85 13.85 18.55 13.21 22.13 11.83 24.18 9.46 24.18 9.46 24.18 9.46 26.21 11.64 26.39 15.19 26.39 15.18 22.47 14.62 19.4 15.21ZM 14.05 6.16C 14.05 6.16 18.84 4.63 22.99 8.24 20.75 10.51 17.77 11.63 17.77 11.63 16.45 8.65 14.05 6.16 14.05 6.16ZM 6.9 13.64C 6.9 13.64 7.62 9.21 12.1 6.89 14.55 9.85 15.82 12.31 15.82 12.31 15.82 12.31 12.17 13.5 6.9 13.64ZM 17.44 15.64C 17.44 15.64 12.77 16.5 9.04 22.14 6.37 19.04 6.7 15.35 6.7 15.33 13.43 15.12 16.64 13.88 16.64 13.88 16.64 13.88 17.44 15.64 17.44 15.64ZM 18.12 17.37C 19.23 19.95 20.08 24.96 20.08 24.96 20.08 24.96 15.25 27.14 10.49 23.53 10.5 23.53 13.19 18.75 18.12 17.37ZM 26.33 16.98C 25.69 21.93 21.97 23.99 21.97 23.99 21.34 20.36 20.05 16.94 20.05 16.94 20.05 16.94 23.03 16.45 26.33 16.98Z" fill="rgb(255,255,255)" filter="url(#filter0)"/></svg>
